X:1
T:Voi che l'anima
T:Voi che l'anima
T:Giovanni Nauwach
T:Source : Libro primo di Arie passaggiate a una voce + BC ---Brescia---1623. Editor : André Vierendeels (28/10/16).
T:Notes : Original clefs : C1, F4 Figures in BC are notated in original print
T:©
T:©
T:©
T:©
C:Giovanni Nauwach
Z:©
%%score 1 2
L:1/8
Q:1/4=100
M:4/4
K:F
V:1 treble nm="Soprano" snm="S"
V:2 bass nm="MusicXML Part"
V:1
 d6 A2 | B6 cB | A4 A4 | z cBA G4 | A/B/c/B/ A/G/F/E/ ^F4 | D/E/^F/G/ A/B/c/d/ B/c/d/G/ A/B/c/B/ | %6
w: Voi che|l'a- ni- ma|mi- a,|con vo- stri lie-|* * * * * * * * ti|gi- * * * * * * * * * * * * * * *|
 A4 G4 | c6 GF | E8 |"^#" D4 d4- | d2 GG G3 F | A4 A4 | z dcB ccBA | B3 A G/A/B/G/ _e/d/c/B/ | %14
w: * ri,|oc- chi be-|a-|ti, voi|_ che per lun- gh'e-|ta- te,|vol- ge te pur d la mia|vi- ta'il fre- * * * * * * *|
 A/B/c/F/ G/A/B/G/ B/G/A/B/ B/B/A | B4 z2 d2 | B6 c2 | _e/d/c/B/ A/B/c/B/ A2 A2 | z2 dc B2 GF | %19
w: |no, an-|cor non|v'ac- * * * * * * cor- ge- te|che per voi ven- go|
 E4 E4 | z2 FG A4 | z2 AB c4 | G4 z2 d2- | d2 EE E4 | D4 G/F/E/F/ G/A/B/c/ | d6 A2 | B2 cB A4 | %27
w: me- no,|che per voi|de- si- an-|do io|_ mi con- fu-|mi, O _ _ _ _ _ _ _|_ dol-|cis- si- mi lu-|
 A4 z _edc | =B2 c4 B2 | c4 z BAG | F/E/F/D/ E/F/G/F/ G/A/D/E/ F/G/A/B/ | c2 B2 A4 | G8 | %33
w: mi, dir- vi mia|pe- * *|na, dir- vi mia|pe- * * * * * * * * * * * * * * *|* na ri-|a,|
 z AGF F3 E | E4 D4 | z ABc d4 | B4 _ed c2 | BA G2 dc B2 | AG ^F2 G/A/B/A/ B/G/A/B/ | %39
w: e co- me'a- mor mi|dtem- pre|io nol sa- pre-|i, non ve- de|te voi cor, non ve- de|te vo'il cor, ne _ _ _ _ _ _ _|
 c/B/c/A/ B/c/B/c/ d/c/d/B/ c/B/c/A/ | B/A/B/G/ A/B/c/F/ G/A/B/c/ d/B/c/d/ | %41
w: gl'oc- * * * * * * * * * * * * * * *||
 _e/d/c/B/ A/f/e/d/ c/B/A/B/ cB | A8 | !fermata!G8 |] %44
w: * * * * * * * * * * * * * chi|mie-|i.|
V:2
 G,,4 D,2 C,2 | B,,2 A,,2 G,,4 | D,4 D,4 | z A,G,F, _E,4- | E,4 D,4 |"^# 34" D,8- | %6
"^# 43" D,4 G,,4 |"^6" A,,4 =B,,4 |"^6" ^C,8 |"^6" D,2 E,2 ^F,4 | G,4 G,4 | D,8 | %12
 z B,A,G, F,F,G,F, | _E,8 |"^3443" F,8 | B,,2 A,,2 G,,4 | G,2 F,2 _E,4 |"^b" C,4 D,2 D,C, | %18
 B,,4 G,,4 | A,,2 =B,,2 ^C,4 | D,4 z2 D,E, | F,4 z2 A,,B,, | C,4 G,,4 |"^#" A,,2 G,,2 A,,4 | %24
 D,4 G,,4 | G,4 ^F,4 | G,4 D,2 E,2 | ^F,4 G,2 _E,2 |"^-natural""^6776" D,8 | C,2 D,2 _E,4 | %30
 D,2 C,2 B,,2 F,2 |"^6""^#" _E,2 C,2 D,4 | G,,8 | D,4 D,4 | A,,4 D,2 E,2 | F,4 B,,4 | %36
"^b" G,,4 C,4 | _E,4 B,,4 |"^#" D,4 G,4 | F,4 B,,2 A,,2 | G,,2 F,2 _E,2 D,2 | %41
"^b" C,2 D,2 _E,2 C,2 |"^3443""^#" D,8 | !fermata!G,,8 |] %44

